static/images/login/pushauth.svg

<?xml version="1.0" encoding="UTF-8"?>
<svg width="340px" height="136px" viewBox="0 0 340 136" version="1.1" xmlns="http://www.w3.org/2000/svg" xmlns:xlink="http://www.w3.org/1999/xlink">
    <!-- Generator: Sketch 44.1 (41455) - http://www.bohemiancoding.com/sketch -->
    <title>2fa-illo</title>
    <desc>Created with Sketch.</desc>
    <defs>
        <polygon id="path-1" points="271.1852 134.322 0.4602 134.322 0.4602 0.0002 271.1852 0.0002 271.1852 134.322"></polygon>
        <polygon id="path-3" points="0.862 135.322 272.837 135.322 272.837 0.364 0.862 0.364"></polygon>
        <polygon id="path-5" points="339.716 0.5993 339.716 2.8623 -3.34272041e-05 2.8623 -3.34272041e-05 0.5993 339.716 0.5993"></polygon>
    </defs>
    <g id="Symbols" stroke="none" stroke-width="1" fill="none" fill-rule="evenodd">
        <g id="screens/2FA-enter-code/WP-app/Desktop" transform="translate(-380.000000, -248.000000)">
            <g id="2fa-illo" transform="translate(380.000000, 247.000000)">
                <g id="Group-19" transform="translate(36.000000, 0.636000)">
                    <g id="Group-3" transform="translate(1.000000, 1.000000)">
                        <mask id="mask-2" fill="white">
                            <use xlink:href="#path-1"></use>
                        </mask>
                        <g id="Clip-2"></g>
                        <path d="M0.4602,434.8282 L0.4602,40.1722 C0.4602,17.9862 18.4462,0.0002 40.6322,0.0002 L231.0122,0.0002 C253.1992,0.0002 271.1852,17.9862 271.1852,40.1722 L271.1852,434.8282 C271.1852,457.0152 253.1992,475.0002 231.0122,475.0002 L40.6322,475.0002 C18.4462,475.0002 0.4602,457.0152 0.4602,434.8282" id="Fill-1" fill="#6F93AD" mask="url(#mask-2)"></path>
                    </g>
                    <mask id="mask-4" fill="white">
                        <use xlink:href="#path-3"></use>
                    </mask>
                    <g id="Clip-5"></g>
                    <polygon id="Fill-4" fill="#F2F5F7" mask="url(#mask-4)" points="18.699 397.145 254.946 397.145 254.946 53.55 18.699 53.55"></polygon>
                    <polygon id="Fill-6" fill="#FEFEFE" mask="url(#mask-4)" points="18.638 100.228 255.008 100.228 255.008 52.451 18.638 52.451"></polygon>
                    <path d="M154.3542,28.5958 C151.3522,29.1678 148.3452,29.3998 145.3372,29.5378 L140.8252,29.7108 L136.3112,29.7998 C133.3012,29.8218 130.2922,29.8118 127.2812,29.7828 C124.2702,29.7378 121.2582,29.6378 118.2442,29.3358 C118.0222,29.3138 117.8612,29.1168 117.8832,28.8948 C117.9022,28.7058 118.0502,28.5598 118.2312,28.5358 C121.2362,28.1438 124.2432,27.9538 127.2512,27.8198 C130.2592,27.6998 133.2682,27.5998 136.2772,27.5328 L140.7912,27.4858 L145.3072,27.5238 C148.3182,27.5718 151.3312,27.7138 154.3482,28.1958 C154.4582,28.2138 154.5342,28.3178 154.5162,28.4288 C154.5022,28.5148 154.4352,28.5798 154.3542,28.5958" id="Fill-7" fill="#FEFEFE" mask="url(#mask-4)"></path>
                    <path d="M65.5344,66.6172 C67.2094,66.4692 68.8844,66.3922 70.5584,66.2792 L75.5824,66.0592 C78.9324,65.9222 82.2824,65.8582 85.6314,65.8102 L95.6804,65.7042 L105.7284,65.6862 L125.8254,65.8402 C132.5244,65.9442 139.2234,66.0592 145.9214,66.4172 C146.1434,66.4292 146.3124,66.6172 146.3004,66.8392 C146.2894,67.0442 146.1224,67.2062 145.9214,67.2172 C139.2234,67.5752 132.5244,67.6912 125.8254,67.7942 L105.7284,67.9492 L95.6804,67.9302 L85.6314,67.8252 C82.2824,67.7772 78.9324,67.7132 75.5824,67.5752 L70.5584,67.3552 C68.8844,67.2422 67.2094,67.1652 65.5344,67.0172 C65.4244,67.0082 65.3424,66.9102 65.3524,66.8002 C65.3614,66.7012 65.4394,66.6252 65.5344,66.6172" id="Fill-8" fill="#85A5BC" mask="url(#mask-4)"></path>
                    <path d="M65.6208,76.6646 C70.2768,76.1376 74.9328,75.9506 79.5888,75.8576 L86.5728,75.7516 L93.5578,75.7336 L107.5258,75.8876 C112.1818,75.9916 116.8378,76.1056 121.4948,76.4646 C121.7148,76.4816 121.8798,76.6746 121.8638,76.8956 C121.8478,77.0956 121.6878,77.2496 121.4948,77.2646 C116.8378,77.6226 112.1818,77.7386 107.5258,77.8416 L93.5578,77.9956 L86.5728,77.9766 L79.5888,77.8716 C74.9328,77.7786 70.2768,77.5916 65.6208,77.0646 C65.5098,77.0516 65.4308,76.9526 65.4428,76.8416 C65.4538,76.7476 65.5298,76.6746 65.6208,76.6646" id="Fill-9" fill="#CCCED0" mask="url(#mask-4)"></path>
                    <path d="M130.6726,76.6646 C138.6946,76.1126 146.7166,75.9996 154.7386,75.8576 L166.7726,75.7516 L178.8056,75.7336 L202.8716,75.8876 C210.8946,75.9916 218.9156,76.1056 226.9386,76.4646 C227.1586,76.4746 227.3296,76.6616 227.3196,76.8826 C227.3116,77.0906 227.1426,77.2546 226.9386,77.2646 C218.9156,77.6226 210.8946,77.7386 202.8716,77.8416 L178.8056,77.9956 L166.7726,77.9766 L154.7386,77.8716 C146.7166,77.7286 138.6946,77.6166 130.6726,77.0646 C130.5626,77.0576 130.4796,76.9616 130.4856,76.8506 C130.4926,76.7496 130.5736,76.6716 130.6726,76.6646" id="Fill-10" fill="#CCCED0" mask="url(#mask-4)"></path>
                    <path d="M87.6662,86.6724 C89.2092,86.5244 90.7532,86.4474 92.2962,86.3344 L96.9272,86.1134 C100.0132,85.9774 103.1002,85.9134 106.1872,85.8654 L115.4482,85.7594 L124.7082,85.7414 L143.2292,85.8954 C149.4032,85.9994 155.5772,86.1134 161.7502,86.4724 C161.9712,86.4854 162.1402,86.6744 162.1272,86.8954 C162.1162,87.1014 161.9512,87.2614 161.7502,87.2724 C155.5772,87.6304 149.4032,87.7464 143.2292,87.8494 L124.7082,88.0044 L115.4482,87.9854 L106.1872,87.8804 C103.1002,87.8324 100.0132,87.7684 96.9272,87.6304 L92.2962,87.4104 C90.7532,87.2974 89.2092,87.2204 87.6662,87.0724 C87.5562,87.0624 87.4752,86.9644 87.4852,86.8534 C87.4952,86.7554 87.5722,86.6814 87.6662,86.6724" id="Fill-11" fill="#CCCED0" mask="url(#mask-4)"></path>
                    <path d="M65.6208,86.6724 C67.0368,86.1454 68.4518,85.9584 69.8678,85.8654 L71.9918,85.7594 L74.1148,85.7384 C75.5308,85.7614 76.9468,85.8174 78.3618,85.8914 C79.7778,85.9764 81.1938,86.1214 82.6098,86.4724 C82.8298,86.5274 82.9648,86.7514 82.9108,86.9714 C82.8718,87.1254 82.7528,87.2364 82.6098,87.2724 C81.1938,87.6234 79.7778,87.7684 78.3618,87.8544 C76.9468,87.9284 75.5308,87.9834 74.1148,88.0064 L71.9918,87.9854 L69.8678,87.8804 C68.4518,87.7864 67.0368,87.6004 65.6208,87.0724 C65.5098,87.0314 65.4538,86.9084 65.4958,86.7974 C65.5168,86.7374 65.5648,86.6934 65.6208,86.6724" id="Fill-12" fill="#CCCED0" mask="url(#mask-4)"></path>
                    <path d="M50.1135,89.2755 L36.5475,89.2755 C33.2415,89.2755 30.5625,86.5965 30.5625,83.2915 L30.5625,69.7255 C30.5625,66.4205 33.2415,63.7405 36.5475,63.7405 L50.1135,63.7405 C53.4185,63.7405 56.0975,66.4205 56.0975,69.7255 L56.0975,83.2915 C56.0975,86.5965 53.4185,89.2755 50.1135,89.2755" id="Fill-13" fill="#6F93AD" mask="url(#mask-4)"></path>
                    <path d="M46.9421,82.7178 L49.1361,76.3728 C49.5461,75.3478 49.6831,74.5288 49.6831,73.7998 C49.6831,73.5358 49.6651,73.2898 49.6341,73.0608 C50.1951,74.0848 50.5141,75.2588 50.5141,76.5078 C50.5141,79.1578 49.0781,81.4718 46.9421,82.7178 L46.9421,82.7178 Z M44.3201,73.1388 C44.7531,73.1168 45.1421,73.0718 45.1421,73.0718 C45.5291,73.0258 45.4841,72.4568 45.0971,72.4788 C45.0971,72.4788 43.9331,72.5708 43.1821,72.5708 C42.4761,72.5708 41.2901,72.4788 41.2901,72.4788 C40.9021,72.4568 40.8571,73.0488 41.2441,73.0718 C41.2441,73.0718 41.6101,73.1168 41.9981,73.1388 L43.1171,76.2058 L41.5441,80.9218 L38.9281,73.1388 C39.3611,73.1168 39.7511,73.0718 39.7511,73.0718 C40.1371,73.0258 40.0921,72.4568 39.7051,72.4788 C39.7051,72.4788 38.5411,72.5708 37.7901,72.5708 C37.6551,72.5708 37.4961,72.5668 37.3271,72.5618 C38.6121,70.6118 40.8201,69.3238 43.3301,69.3238 C45.2001,69.3238 46.9031,70.0388 48.1811,71.2098 C48.1501,71.2078 48.1201,71.2038 48.0881,71.2038 C47.3831,71.2038 46.8821,71.8188 46.8821,72.4788 C46.8821,73.0718 47.2241,73.5718 47.5881,74.1638 C47.8611,74.6428 48.1801,75.2578 48.1801,76.1458 C48.1801,76.7608 47.9981,77.5338 47.6331,78.4678 L46.9171,80.8628 L44.3201,73.1388 Z M43.3301,83.6928 C42.6251,83.6928 41.9441,83.5898 41.3001,83.4008 L43.4561,77.1358 L45.6651,83.1868 C45.6791,83.2218 45.6971,83.2548 45.7161,83.2848 C44.9691,83.5478 44.1671,83.6928 43.3301,83.6928 L43.3301,83.6928 Z M36.1461,76.5078 C36.1461,75.4668 36.3691,74.4778 36.7681,73.5838 L40.1951,82.9738 C37.7981,81.8088 36.1461,79.3518 36.1461,76.5078 L36.1461,76.5078 Z M43.3301,68.5168 C38.9241,68.5168 35.3391,72.1018 35.3391,76.5078 C35.3391,80.9138 38.9241,84.4988 43.3301,84.4988 C47.7361,84.4988 51.3211,80.9138 51.3211,76.5078 C51.3211,72.1018 47.7361,68.5168 43.3301,68.5168 L43.3301,68.5168 Z" id="Fill-14" fill="#FEFEFE" mask="url(#mask-4)"></path>
                    <path d="M13.5881,100.7159 C34.2601,100.1649 54.9331,100.0489 75.6061,99.9109 L137.6241,99.7849 C178.9681,99.9049 220.3141,99.8369 261.6591,100.5159 C261.8791,100.5199 262.0561,100.7019 262.0521,100.9229 C262.0481,101.1389 261.8741,101.3119 261.6591,101.3159 C220.3141,101.9959 178.9681,101.9269 137.6241,102.0479 L75.6061,101.9209 C54.9331,101.7829 34.2601,101.6669 13.5881,101.1159 C13.4781,101.1129 13.3901,101.0209 13.3931,100.9109 C13.3961,100.8039 13.4831,100.7189 13.5881,100.7159" id="Fill-15" fill="#204A69" mask="url(#mask-4)"></path>
                    <polyline id="Fill-16" fill="#FEFEFE" mask="url(#mask-4)" points="245.9606 243.9527 167.5666 243.9527 167.5666 111.9727 245.9606 111.9727"></polyline>
                    <path d="M216.156,167.4874 L186.588,167.4874 L186.588,139.9754 C186.588,132.9944 192.246,127.3364 199.227,127.3364 L229.284,127.3364 L229.284,154.3594 C229.284,161.6094 223.406,167.4874 216.156,167.4874" id="Fill-17" fill="#D8DEE4" mask="url(#mask-4)"></path>
                    <path d="M140.2507,134.3946 L26.6287,134.3946 L26.6287,125.8366 C26.6287,118.1986 32.8207,112.0056 40.4587,112.0056 L151.7587,112.0056 L151.7587,134.3946" id="Fill-18" fill="#204A69" mask="url(#mask-4)"></path>
                </g>
                <g id="Group-22" transform="translate(0.000000, 133.636000)">
                    <mask id="mask-6" fill="white">
                        <use xlink:href="#path-5"></use>
                    </mask>
                    <g id="Clip-21"></g>
                    <path d="M0.196,1.5303 C28.457,0.9793 56.717,0.8633 84.977,0.7253 L169.758,0.5993 C226.279,0.7193 282.8,0.6513 339.321,1.3303 C339.542,1.3333 339.718,1.5143 339.717,1.7353 C339.714,1.9523 339.537,2.1273 339.321,2.1303 C282.8,2.8103 226.279,2.7413 169.758,2.8623 L84.977,2.7353 C56.717,2.5973 28.457,2.4813 0.196,1.9303 C0.086,1.9283 -0.002,1.8373 -2.77555756e-17,1.7263 C0.002,1.6183 0.09,1.5323 0.196,1.5303" id="Fill-20" fill="#E9EEF3" mask="url(#mask-6)"></path>
                </g>
            </g>
        </g>
    </g>
</svg>

<svg height="136" viewBox="0 0 340 136" width="340" xmlns="http://www.w3.org/2000/svg" xmlns:xlink="http://www.w3.org/1999/xlink"><mask id="a" fill="#fff"><path d="m271.1852 134.322h-270.725v-134.3218h270.725z" fill="#fff" fill-rule="evenodd"/></mask><mask id="b" fill="#fff"><path d="m.862 135.322h271.975v-134.958h-271.975z" fill="#fff" fill-rule="evenodd"/></mask><mask id="c" fill="#fff"><path d="m339.716.5993v2.263h-339.71603343v-2.263z" fill="#fff" fill-rule="evenodd"/></mask><g fill="none" fill-rule="evenodd"><g transform="translate(36 -.364)"><path d="m.4602 434.8282v-394.656c0-22.186 17.986-40.172 40.172-40.172h190.38c22.187 0 40.173 17.986 40.173 40.172v394.656c0 22.187-17.986 40.172-40.173 40.172h-190.38c-22.186 0-40.172-17.985-40.172-40.172" fill="#6f93ad" mask="url(#a)" transform="translate(1 1)"/><path d="m18.699 397.145h236.247v-343.595h-236.247z" fill="#f2f5f7" mask="url(#b)"/><path d="m18.638 100.228h236.37v-47.777h-236.37z" fill="#fefefe" mask="url(#b)"/><path d="m154.3542 28.5958c-3.002.572-6.009.804-9.017.942l-4.512.173-4.514.089c-3.01.022-6.019.012-9.03-.017-3.011-.045-6.023-.145-9.037-.447-.222-.022-.383-.219-.361-.441.019-.189.167-.335.348-.359 3.005-.392 6.012-.582 9.02-.716 3.008-.12 6.017-.22 9.026-.287l4.514-.047 4.516.038c3.011.048 6.024.19 9.041.672.11.018.186.122.168.233-.014.086-.081.151-.162.167" fill="#fefefe" mask="url(#b)"/><path d="m65.5344 66.6172c1.675-.148 3.35-.225 5.024-.338l5.024-.22c3.35-.137 6.7-.201 10.049-.249l10.049-.106 10.048-.018 20.097.154c6.699.104 13.398.219 20.096.577.222.012.391.2.379.422-.011.205-.178.367-.379.378-6.698.358-13.397.474-20.096.577l-20.097.155-10.048-.019-10.049-.105c-3.349-.048-6.699-.112-10.049-.25l-5.024-.22c-1.674-.113-3.349-.19-5.024-.338-.11-.009-.192-.107-.182-.217.009-.099.087-.175.182-.183" fill="#85a5bc" mask="url(#b)"/><g fill="#ccced0"><path d="m65.6208 76.6646c4.656-.527 9.312-.714 13.968-.807l6.984-.106 6.985-.018 13.968.154c4.656.104 9.312.218 13.969.577.22.017.385.21.369.431-.016.2-.176.354-.369.369-4.657.358-9.313.474-13.969.577l-13.968.154-6.985-.019-6.984-.105c-4.656-.093-9.312-.28-13.968-.807-.111-.013-.19-.112-.178-.223.011-.094.087-.167.178-.177" mask="url(#b)"/><path d="m130.6726 76.6646c8.022-.552 16.044-.665 24.066-.807l12.034-.106 12.033-.018 24.066.154c8.023.104 16.044.218 24.067.577.22.01.391.197.381.418-.008.208-.177.372-.381.382-8.023.358-16.044.474-24.067.577l-24.066.154-12.033-.019-12.034-.105c-8.022-.143-16.044-.255-24.066-.807-.11-.007-.193-.103-.187-.214.007-.101.088-.179.187-.186" mask="url(#b)"/><path d="m87.6662 86.6724c1.543-.148 3.087-.225 4.63-.338l4.631-.221c3.086-.136 6.173-.2 9.26-.248l9.261-.106 9.26-.018 18.521.154c6.174.104 12.348.218 18.521.577.221.013.39.202.377.423-.011.206-.176.366-.377.377-6.173.358-12.347.474-18.521.577l-18.521.155-9.26-.019-9.261-.105c-3.087-.048-6.174-.112-9.26-.25l-4.631-.22c-1.543-.113-3.087-.19-4.63-.338-.11-.01-.191-.108-.181-.219.01-.098.087-.172.181-.181" mask="url(#b)"/><path d="m65.6208 86.6724c1.416-.527 2.831-.714 4.247-.807l2.124-.106 2.123-.021c1.416.023 2.832.079 4.247.153 1.416.085 2.832.23 4.248.581.22.055.355.279.301.499-.039.154-.158.265-.301.301-1.416.351-2.832.496-4.248.582-1.415.074-2.831.129-4.247.152l-2.123-.021-2.124-.105c-1.416-.094-2.831-.28-4.247-.808-.111-.041-.167-.164-.125-.275.021-.06.069-.104.125-.125" mask="url(#b)"/></g><path d="m50.1135 89.2755h-13.566c-3.306 0-5.985-2.679-5.985-5.984v-13.566c0-3.305 2.679-5.985 5.985-5.985h13.566c3.305 0 5.984 2.68 5.984 5.985v13.566c0 3.305-2.679 5.984-5.984 5.984" fill="#6f93ad" mask="url(#b)"/><path d="m46.9421 82.7178 2.194-6.345c.41-1.025.547-1.844.547-2.573 0-.264-.018-.51-.049-.739.561 1.024.88 2.198.88 3.447 0 2.65-1.436 4.964-3.572 6.21zm-2.622-9.579c.433-.022.822-.067.822-.067.387-.046.342-.615-.045-.593 0 0-1.164.092-1.915.092-.706 0-1.892-.092-1.892-.092-.388-.022-.433.57-.046.593 0 0 .366.045.754.067l1.119 3.067-1.573 4.716-2.616-7.783c.433-.022.823-.067.823-.067.386-.046.341-.615-.046-.593 0 0-1.164.092-1.915.092-.135 0-.294-.004-.463-.009 1.285-1.95 3.493-3.238 6.003-3.238 1.87 0 3.573.715 4.851 1.886-.031-.002-.061-.006-.093-.006-.705 0-1.206.615-1.206 1.275 0 .593.342 1.093.706 1.685.273.479.592 1.094.592 1.982 0 .615-.182 1.388-.547 2.322l-.716 2.395zm-.99 10.554c-.705 0-1.386-.103-2.03-.292l2.156-6.265 2.209 6.051c.014.035.032.068.051.098-.747.263-1.549.408-2.386.408zm-7.184-7.185c0-1.041.223-2.03.622-2.924l3.427 9.39c-2.397-1.165-4.049-3.622-4.049-6.466zm7.184-7.991c-4.406 0-7.991 3.585-7.991 7.991s3.585 7.991 7.991 7.991 7.991-3.585 7.991-7.991-3.585-7.991-7.991-7.991z" fill="#fefefe" mask="url(#b)"/><path d="m13.5881 100.7159c20.672-.551 41.345-.667 62.018-.805l62.018-.126c41.344.12 82.69.052 124.035.731.22.004.397.186.393.407-.004.216-.178.389-.393.393-41.345.68-82.691.611-124.035.732l-62.018-.127c-20.673-.138-41.346-.254-62.018-.805-.11-.003-.198-.095-.195-.205.003-.107.09-.192.195-.195" fill="#204a69" mask="url(#b)"/><path d="m245.9606 243.9527h-78.394v-131.98h78.394" fill="#fefefe" mask="url(#b)"/><path d="m216.156 167.4874h-29.568v-27.512c0-6.981 5.658-12.639 12.639-12.639h30.057v27.023c0 7.25-5.878 13.128-13.128 13.128" fill="#d8dee4" mask="url(#b)"/><path d="m140.2507 134.3946h-113.622v-8.558c0-7.638 6.192-13.831 13.83-13.831h111.3v22.389" fill="#204a69" mask="url(#b)"/></g><path d="m.196 1.5303c28.261-.551 56.521-.667 84.781-.805l84.781-.126c56.521.12 113.042.052 169.563.731.221.003.397.184.396.405-.003.217-.18.392-.396.395-56.521.68-113.042.611-169.563.732l-84.781-.127c-28.26-.138-56.52-.254-84.781-.805-.11-.002-.198-.093-.196-.204.002-.108.09-.194.196-.196" fill="#e9eef3" mask="url(#c)" transform="translate(0 132.636)"/></g></svg>
